public/bg-star.svg

<svg width="28" height="27" viewBox="0 0 28 27" fill="none" xmlns="http://www.w3.org/2000/svg">
<path d="M14.6889 0.627688L18.2889 7.82769C18.4889 8.02769 18.6889 8.22769 19.0889 8.42769L26.8889 9.62769C27.6889 9.82769 28.0889 10.8277 27.4889 11.4277L21.8889 17.0277C21.6889 17.2277 21.4889 17.6277 21.6889 17.8277L23.0889 25.6277C23.2889 26.4277 22.2889 27.0277 21.6889 26.6277L14.6889 23.0277C14.4889 22.8277 14.0889 22.8277 13.6889 23.0277L6.68889 26.6277C5.88889 27.0277 5.08889 26.4277 5.28889 25.6277L6.68889 17.8277C6.68889 17.4277 6.68889 17.2277 6.48889 17.0277L0.288889 11.0277C-0.311111 10.4277 0.0888888 9.42769 0.888889 9.42769L8.68889 8.22769C9.08889 8.22769 9.28889 8.02769 9.48889 7.62769L13.0889 0.427688C13.2889 -0.172312 14.4889 -0.172312 14.6889 0.627688Z" fill="url(#paint0_linear_11917_51928)"/>
<defs>
<linearGradient id="paint0_linear_11917_51928" x1="0.0148889" y1="13.2277" x2="27.7629" y2="13.2277" gradientUnits="userSpaceOnUse">
<stop stop-color="#FFC80B"/>
<stop offset="1" stop-color="#E89318"/>
</linearGradient>
</defs>
</svg>

<svg xmlns="http://www.w3.org/2000/svg" width="28" height="27" fill="none" viewBox="0 0 28 27"><path fill="url(#a)" d="m14.689.628 3.6 7.2c.2.2.4.4.8.6l7.8 1.2c.8.2 1.2 1.2.6 1.8l-5.6 5.6c-.2.2-.4.6-.2.8l1.4 7.8c.2.8-.8 1.4-1.4 1l-7-3.6c-.2-.2-.6-.2-1 0l-7 3.6c-.8.4-1.6-.2-1.4-1l1.4-7.8c0-.4 0-.6-.2-.8l-6.2-6c-.6-.6-.2-1.6.6-1.6l7.8-1.2c.4 0 .6-.2.8-.6l3.6-7.2c.2-.6 1.4-.6 1.6.2"/><defs><linearGradient id="a" x1=".015" x2="27.763" y1="13.228" y2="13.228" gradientUnits="userSpaceOnUse"><stop stop-color="#ffc80b"/><stop offset="1" stop-color="#e89318"/></linearGradient></defs></svg>
